X: 21653
Q: "Moderate."
M: C
L: 1/8
K: D	% and Bm
(cd) |\
d3B dcBA | F2B2 B2 |]
~B3c {e}(d2cB) | c2e2 ^A2F2 |\
f3d {f}e2(Bc) | d>cd>B A2(.Bc) |\
d2D2 D>CD>E | F2B2 B2 |]


